X:1
T:Title
%%score { ( 1 3 5 ) | ( 2 4 6 ) }
L:1/8
M:4/4
K:Ab
V:1 treble nm="Grand Piano"
V:3 treble 
V:5 treble 
V:2 bass 
V:4 bass 
V:6 bass 
V:1
 z4 z2[Q:1/4=100] [CE]>[CF] | [CA]2 [CA]>[CA] [CA]2 [DF][DE] | [CA]2 [CA]>[DB] [CA]2 A>B | %3
 c2 z2 z4 | B6 z2 | c>c c>d e2 c>B |[M:3/4] [CA]>[CA] [CA]>[DB] [Ec]2 | %7
[M:11/32] A/4-A/4-A/4-A/4-A/4-A/4-A/-<A/ z/4 |[M:4/4] (7:8:5E3/2E3/2.E/ A3/2 B2 |[M:3/4] z6 | %10
[M:11/32] c/4-c/4-c/4-c/4-c/4-c/-<c/ z/ |[M:4/4] [CA]<[CA] [CA]2 [CA]2 [DF][DE] | %12
 [CA]2 [CA]>[DB] [CA]2 A>B | c<c c2 c2 d>c | B6 A>B |[M:3/4] cc c>d ee |[M:1/4] c>B | %17
[M:37/32] A/4-A/4-A/-<A/A/A/4-A/4-A/-<A/[FB]/[=Ec]/-<[Ec]/[Ec]/4-[Ec]/4-[Ec]/-<[Ec]/A/4-A/4-A/4-A/4-A/-<A/-[F-A]/F/4 | %18
[M:4/4] (9:8:9E/E3/2 E2- E/ A/A3/2B/-B3/2B/ |[M:3/4] [CEA]6 |] %20
V:2
 z4 z2 [A,,A,]>[A,,F,] | [A,,E,]2 [A,,E,]2 [A,,E,]2 [A,,A,][A,,A,] | %2
 [A,,A,]2 [A,,A,]>[A,,F,] [A,,E,]2 [A,C]>[A,D] | .[A,E]2 [A,E]>[A,E] [G,B,E]2 =DD | %4
 [E,G,E]2 [F,A,]>[F,A,] E,D, C,>[E,G,E] | [A,E]>[A,E] [A,E]>[A,B,E] [A,CE]2 [E,A,E]>[E,G,D] | %6
[M:3/4] [A,,A,]>[A,,A,] [A,,A,]>[A,,A,] [A,,A,]2 | %7
[M:11/32] [D,A,]/4-[D,A,]/4-[D,A,]/4-[D,A,]/4-[D,A,]/-<[D,A,]/[D,A,D]3/4 | %8
[M:4/4] [A,C]2- [A,C]/4 z/4 z/ z z4 |[M:3/4] z6 |[M:11/32] E/4-E/4-E/4-E/4-E/4-E/-<E/ z/ | %11
[M:4/4] [A,,E,]<[A,,E,] [A,,E,]2 [A,,E,]2 [A,,A,][A,,A,] | %12
 [A,,A,]2 [A,,A,]>[A,,F,] [A,,E,]2 [A,C]>[A,D] | [A,E]<[A,E] [A,E]2 [A,E]2 [G,B,E]>[A,E] | %14
 [E,G,E]6 [A,C]>[A,D] |[M:3/4] [A,E][A,E] [A,E]>[A,B,E] [A,CE][A,CE] |[M:1/4] [E,A,E]>[E,G,D] | %17
[M:37/32] [F,A,C]/4-[F,A,C]/4-[F,A,C]/-<[F,A,C]/[F,A,C]/[F,A,C]/4-[F,A,C]/4-[F,A,C]/-<[F,A,C]/[D,F,]/[C,G,]/-<[C,G,]/[C,G,]/4-[C,G,]/4-[C,G,]/-<[C,G,]/[D,D]/4-[D,D]/4-[D,D]/4-[D,D]/4-[D,D]/-<[D,D]/[D,A,D]3/4 | %18
[M:4/4] (9:8:9[E,A,C]/[E,A,C]3/2 [E,A,C]2- [E,A,C]/ [E,CE]/[E,CE]3/2[E,DE]/-[E,DE]3/2[E,DE]/ | %19
[M:3/4] A,,6 |] %20
V:3
 x8 | x8 | x8 | z/ A,3/2 c>c B2 AA | z2 =D>D [G,E]2 [A,EA]>B | x8 |[M:3/4] x6 | %7
[M:11/32] F/4-F/4-F/4-F/4-F/-<F/F3/4 |[M:4/4] x8 |[M:3/4] x6 | %10
[M:11/32] z/4 z/4 z/4 z/4 z/4 z/4 z/ B3/4 |[M:4/4] x8 | x8 | x8 | x8 |[M:3/4] x6 |[M:1/4] x2 | %17
[M:37/32] z/4 z/4 z/4 z/4 z/4 z/4 z/4 z/4 z/4 z/4 z/4 z/4 z/4 z/4 z/4 z/4 z/4 z/4 z/4 z/4 z/4 z/4 z/4 z/4 z/ F/4-F/4-F/4-F/4-F/-<F/ z/4 z/ | %18
[M:4/4] x481/60 |[M:3/4] x6 |] %20
V:4
 x8 | x8 | x8 | z4 z2 [F,B,]2 | x8 | x8 |[M:3/4] x6 |[M:11/32] x11/4 | %8
[M:4/4] (7:8:5E,3/2[E,A,C]3/2.C/ [E,A,C]3/2 [E,G,D]2 |[M:3/4] x6 | %10
[M:11/32] A,/4-A,/4-A,/4-A,/4-A,/-<A,/[A,D]3/4 |[M:4/4] x8 | x8 | x8 | x8 |[M:3/4] x6 |[M:1/4] x2 | %17
[M:37/32] x37/4 |[M:4/4] x481/60 |[M:3/4] x6 |] %20
V:5
 x8 | x8 | x8 | x8 | x8 | x8 |[M:3/4] x6 |[M:11/32] x11/4 |[M:4/4] x8 |[M:3/4] [CA]6- | %10
[M:11/32] [CA]/4 z/4 z/4 z/4 z/4 z/4 z/4 z/4 z/4 z/ |[M:4/4] x8 | x8 | x8 | x8 |[M:3/4] x6 | %16
[M:1/4] x2 |[M:37/32] x37/4 |[M:4/4] x481/60 |[M:3/4] x6 |] %20
V:6
 x8 | x8 | x8 | x8 | x8 | x8 |[M:3/4] x6 |[M:11/32] x11/4 |[M:4/4] x8 |[M:3/4] [A,,E,]6- | %10
[M:11/32] [A,,E,]/4 z/4 z/4 z/4 z/4 z/4 z/4 z/4 z/4 z/ |[M:4/4] x8 | x8 | x8 | x8 |[M:3/4] x6 | %16
[M:1/4] x2 |[M:37/32] x37/4 |[M:4/4] x481/60 |[M:3/4] x6 |] %20

